; generated by PrusaSlicer 2.9.2 on 2025-05-16 at 20:15:14 UTC


;
;

;
;

;
;

;
;
; 

; external perimeters extrusion width = 0.45mm
; perimeters extrusion width = 0.45mm
; infill extrusion width = 0.45mm
; solid infill extrusion width = 0.45mm
; top infill extrusion width = 0.42mm
; support material extrusion width = 0.36mm
; first layer extrusion width = 0.50mm

; external perimeters extrusion width = 0.45mm
; perimeters extrusion width = 0.45mm
; infill extrusion width = 0.45mm
; solid infill extrusion width = 0.45mm
; top infill extrusion width = 0.42mm
; support material extrusion width = 0.36mm
; first layer extrusion width = 0.50mm

M73 P0 R118
M73 Q0 S123
M201 X4000 Y4000 Z400 E5000 ; sets maximum accelerations, mm/sec^2
M203 X400 Y400 Z12 E80 ; sets maximum feedrates, mm / sec
M204 P4000 R1250 T4000 ; sets acceleration (P, T) and retract acceleration (R), mm/sec^2
M205 X8.00 Y8.00 Z2.00 E10.00 ; sets the jerk limits, mm/sec
M205 S0 T0 ; sets the minimum extruding and travel feed rate, mm/sec

M486 S0
M486 ALid v1.stl
M486 S-1
M486 S1
M486 Alower_case.stl
M486 S-1

;TYPE:Custom
M862.3 P "MINI" ; printer model check
M862.1 P0.4 A0 F0 ; nozzle check
M862.5 P2 ; g-code level check
M862.6 P"Input shaper" ; FW feature check
M115 U6.2.4+8909
G90 ; use absolute coordinates
M83 ; extruder relative mode
M104 S170 ; set extruder temp for bed leveling
M140 S60 ; set bed temp
M109 R170 ; wait for bed leveling temp
M190 S60 ; wait for bed temp
M569 S1 X Y ; set stealthchop for X Y
M204 T1250 ; set travel acceleration
G28 ; home all without mesh bed level
G29 ; mesh bed leveling 
M104 S230 ; set extruder temp
G92 E0

G1 X0 Y-2 Z3 F2400

M109 S230 ; wait for extruder temp

; intro line
G1 X10 Z0.2 F1000
G1 X70 E8 F900
G1 X140 E10 F700
M73 Q0 S122
G92 E0

M569 S0 X Y ; set spreadcycle for X Y
M204 T4000 ; restore travel acceleration
M572 W0.06 ; set smooth time
M221 S95 ; set flow
G21 ; set units to millimeters
G90 ; use absolute coordinates
M83 ; use relative distances for extrusion
M572 S0.27
M107
;LAYER_CHANGE
;Z:0.2
;HEIGHT:0.2
G1 E-2.5 F4200
G1 Z.4 F720
G1 X7.376 Y25.12 F24000
G1 Z.2 F720
G1 E2.5 F2400
M204 P500
;TYPE:Skirt/Brim
;WIDTH:0.5
G1 F1800
G3 X9.52 Y24.788 I2.327 J7.926 E.0827
G1 X85.832 Y24.787 E2.90034
G1 X86.663 Y24.843 E.03165
G3 X93.648 Y30.923 I-.998 J8.199 E.37362
G3 X98.093 Y29.003 I4.676 J4.72 E.18836
G1 X127.281 Y29.008 E1.10933
G3 X129.283 Y29.669 I-.683 J5.437 E.08063
G1 X129.711 Y30.002 E.02061
G1 X140.722 Y30.002 E.41849
G3 X141.982 Y29.263 I2.868 J3.448 E.05577
G1 X143.222 Y29.002 E.04816
G1 X172.301 Y29.002 E1.10519
G3 X178.558 Y35.254 I-.122 J6.379 E.37143
G1 X178.558 Y139.425 E3.95916
G3 X172.29 Y145.686 I-6.379 J-.118 E.37219
G1 X98.135 Y145.686 E2.81836
G3 X92.946 Y142.901 I.168 J-6.539 E.23217
G3 X85.792 Y147.267 I-7.269 J-3.867 E.33419
G1 X9.625 Y147.269 E2.89483
G3 X1.443 Y139.086 I.082 J-8.264 E.48719
G1 X1.443 Y32.966 E4.03323
G3 X7.319 Y25.137 I8.26 J.08 E.3982
M204 P2000
M204 T4000
G1 X7.45 Y25.575 F24000
M204 P500
G1 F1800
G3 X9.544 Y25.244 I2.253 J7.47 E.08082
G1 X85.809 Y25.243 E2.89855
G3 X93.396 Y31.967 I-.141 J7.803 E.41937
G3 X98.103 Y29.46 I4.875 J3.48 E.21006
M73 P0 R117
G1 X127.256 Y29.466 E1.108
G3 X129.55 Y30.459 I-.396 J4.06 E.09656
G1 X140.883 Y30.459 E.43073
G3 X143.246 Y29.459 I2.704 J3.098 E.09918
G1 X172.292 Y29.459 E1.10393
G3 X178.101 Y35.265 I-.111 J5.92 E.34494
G1 X178.101 Y139.415 E3.95836
G3 X172.281 Y145.229 I-5.919 J-.105 E.34566
G1 X98.145 Y145.229 E2.81764
G3 X92.905 Y141.92 I.146 J-6.034 E.24735
G3 X85.768 Y146.81 I-7.234 J-2.905 E.34857
G1 X9.633 Y146.811 E2.89361
G3 X1.9 Y139.078 I.073 J-7.805 E.4605
G1 X1.9 Y32.974 E4.03262
G3 X7.393 Y25.592 I7.803 J.071 E.37402
M204 P2000
G1 X7.528 Y26.028 F24000
M204 P500
G1 F1800
G3 X9.568 Y25.701 I2.174 J7.016 E.07878
G1 X85.787 Y25.7 E2.8968
G1 X86.554 Y25.75 E.02921
G3 X93.012 Y32.884 I-.891 J7.297 E.39872
G1 X93.34 Y32.96 E.0128
G3 X98.114 Y29.917 I4.918 J2.449 E.22605
G1 X127.231 Y29.923 E1.10663
G3 X129.386 Y30.916 I-.393 J3.689 E.09179
G1 X141.046 Y30.916 E.44315
G3 X143.269 Y29.916 I2.56 J2.721 E.09437
G1 X172.282 Y29.916 E1.10268
G3 X177.644 Y35.277 I-.098 J5.46 E.31852
G1 X177.644 Y139.405 E3.95752
G3 X172.273 Y144.772 I-5.459 J-.093 E.3191
G1 X98.155 Y144.772 E2.81695
G3 X93.058 Y140.995 I.084 J-5.442 E.2574
G1 X92.732 Y141.011 E.0124
G3 X85.745 Y146.354 I-7.06 J-1.992 E.35849
G1 X9.64 Y146.354 E2.89247
G3 X2.358 Y139.071 I.065 J-7.347 E.43373
M73 Q0 S121
G1 X2.358 Y32.981 E4.03209
G3 X7.471 Y26.046 I7.344 J.063 E.34993
M204 P2000
G1 X7.61 Y26.482 F24000
M204 P500
G1 F1800
G3 X9.591 Y26.157 I2.091 J6.561 E.07657
G1 X85.765 Y26.157 E2.89509
G3 X92.553 Y32.885 I-.095 J6.884 E.40148
M73 P1 R117
M73 Q1 S121
G1 X92.557 Y139.064 E4.03547
G3 X85.723 Y145.897 I-6.889 J-.056 E.40707
G1 X9.648 Y145.897 E2.89133
G3 X2.815 Y139.063 I.056 J-6.889 E.40707
G1 X2.815 Y32.989 E4.03148
G3 X7.553 Y26.5 I6.886 J.054 E.32604
M204 P2000
G1 X7.695 Y26.934 F24000
M204 P500
G1 F1800
G3 X9.613 Y26.614 I2.006 J6.108 E.07419
G1 X85.744 Y26.613 E2.89346
G1 X86.424 Y26.656 E.0259
G3 X92.097 Y32.908 I-.756 J6.385 E.35001
G1 X92.1 Y139.056 E4.0343
G3 X85.716 Y145.44 I-6.431 J-.047 E.38037
G1 X9.656 Y145.44 E2.89076
G3 X3.272 Y139.056 I.047 J-6.431 E.38037
G1 X3.272 Y32.996 E4.03095
G3 X7.638 Y26.953 I6.429 J.046 E.30225
M73 P1 R116
M204 P2000
G1 X7.785 Y27.386 F24000
M204 P500
G1 F1800
G3 X9.635 Y27.07 I1.915 J5.656 E.07163
G1 X85.723 Y27.07 E2.89183
G3 X91.64 Y32.931 I-.052 J5.97 E.3503
G1 X91.643 Y139.049 E4.03316
G3 X85.709 Y144.983 I-5.973 J-.039 E.35364
G1 X9.663 Y144.983 E2.89023
G3 X3.729 Y139.049 I.039 J-5.973 E.35364
G1 X3.729 Y33.003 E4.03042
G3 X7.728 Y27.405 I5.971 J.039 E.27864
M204 P2000
G1 X7.879 Y27.836 F24000
M204 P500
G1 F1800
G3 X9.656 Y27.527 I1.821 J5.205 E.06886
G1 X85.704 Y27.527 E2.89031
G1 X86.298 Y27.561 E.02261
G3 X91.184 Y32.952 I-.628 J5.479 E.30198
G1 X91.185 Y139.042 E4.03209
G3 X85.702 Y144.526 I-5.514 J-.031 E.32686
G1 X9.67 Y144.526 E2.8897
G3 X4.186 Y139.042 I.031 J-5.515 E.3269
G1 X4.186 Y33.011 E4.02985
G3 X7.822 Y27.856 I5.514 J.03 E.25524
M204 P2000
G1 X7.978 Y28.286 F24000
M73 Q1 S120
M204 P500
G1 F1800
G3 X9.677 Y27.984 I1.722 J4.754 E.06591
G1 X85.697 Y27.984 E2.88924
G3 X90.727 Y32.974 I-.024 J5.054 E.29838
G1 X90.728 Y139.035 E4.03099
G3 X85.695 Y144.069 I-5.056 J-.023 E.30013
G1 X9.677 Y144.069 E2.88916
G3 X4.643 Y139.035 I.023 J-5.057 E.30017
G1 X4.643 Y33.017 E4.02935
G3 X7.921 Y28.306 I5.057 J.023 E.23195
M204 P2000
G1 X8.082 Y28.734 F24000
M204 P500
G1 F1800
G3 X9.684 Y28.441 I1.616 J4.305 E.06222
G1 X85.69 Y28.441 E2.88871
G3 X90.27 Y32.995 I-.016 J4.597 E.27217
G1 X90.271 Y139.028 E4.02992
G3 X85.688 Y143.612 I-4.598 J-.014 E.27339
M73 P2 R116
G1 X9.684 Y143.612 E2.88863
G3 X5.1 Y139.028 I.014 J-4.598 E.27343
G1 X5.1 Y33.024 E4.02882
G3 X8.026 Y28.756 I4.598 J.015 E.20888
M73 Q2 S120
M204 P2000
G1 X8.192 Y29.181 F24000
M204 P500
G1 F1800
G3 X9.69 Y28.898 I1.505 J3.857 E.05827
G1 X85.684 Y28.898 E2.88825
G3 X89.814 Y33.015 I-.01 J4.139 E.24592
G1 X89.814 Y139.022 E4.02894
G3 X85.682 Y143.155 I-4.14 J-.007 E.24658
M73 P2 R115
G1 X9.69 Y143.155 E2.88818
G3 X5.557 Y139.022 I.007 J-4.14 E.24662
G1 X5.557 Y33.031 E4.02833
G3 X8.136 Y29.203 I4.14 J.007 E.18608
M204 P2000
G1 E-2.5 F4200
G1 Z.4 F720
G1 X93.256 Y35.03 F24000
G1 Z.2 F720
G1 E2.5 F2400
M204 P500
G1 F1800
G3 X98.124 Y30.374 I4.987 J.341 E.28092
G1 X127.206 Y30.38 E1.1053
G3 X129.221 Y31.373 I-.413 J3.378 E.08701
G1 X141.211 Y31.373 E.4557
G3 X143.292 Y30.373 I2.435 J2.401 E.08951
G1 X172.273 Y30.373 E1.10146
G3 X177.187 Y35.288 I-.087 J5.001 E.29204
G1 X177.187 Y139.395 E3.95672
G3 X172.264 Y144.315 I-5 J-.08 E.29257
G1 X98.165 Y144.315 E2.81623
G3 X93.245 Y139.392 I.08 J-5 E.29257
G1 X93.245 Y35.293 E3.95642
G3 X93.252 Y35.09 I4.998 J.078 E.00772
M204 P2000
G1 X93.709 Y35.115 F24000
M204 P500
G1 F1800
G3 X98.134 Y30.832 I4.531 J.254 E.25724
G1 X127.182 Y30.837 E1.10401
G3 X128.986 Y31.83 I-.31 J2.697 E.08027
G1 X141.446 Y31.83 E.47356
G3 X143.314 Y30.83 I2.122 J1.719 E.0827
G1 X172.263 Y30.83 E1.10025
G3 X176.73 Y35.299 I-.074 J4.541 E.26559
G1 X176.73 Y139.385 E3.95593
G3 X172.255 Y143.858 I-4.54 J-.067 E.26605
G1 X98.175 Y143.858 E2.81551
G3 X93.702 Y139.383 I.067 J-4.54 E.26605
M73 Q2 S119
G1 X93.702 Y35.303 E3.9557
G3 X93.706 Y35.175 I4.538 J.066 E.00487
M204 P2000
G1 X94.162 Y35.194 F24000
M204 P500
G1 F1800
G3 X98.145 Y31.289 I4.076 J.172 E.23343
G1 X127.156 Y31.294 E1.1026
G3 X128.754 Y32.287 I-.273 J2.22 E.0738
G1 X141.678 Y32.287 E.49119
G3 X143.338 Y31.287 I1.876 J1.236 E.07615
G1 X172.254 Y31.287 E1.09899
G3 X176.273 Y35.31 I-.062 J4.081 E.2391
G1 X176.273 Y139.375 E3.95513
G3 X172.246 Y143.401 I-4.081 J-.055 E.23952
G1 X98.185 Y143.401 E2.81479
G3 X94.159 Y139.374 I.055 J-4.081 E.23952
G1 X94.159 Y35.312 E3.95501
G3 X94.16 Y35.254 I4.079 J.054 E.0022
M204 P2000
G1 X94.617 Y35.267 F24000
M204 P500
G1 F1800
G3 X98.155 Y31.746 I3.618 J.097 E.20933
G1 X127.128 Y31.751 E1.10116
G3 X128.498 Y32.671 I-.355 J2.007 E.06457
G1 X128.779 Y32.744 E.01103
G1 X141.653 Y32.744 E.48929
G2 X142.237 Y32.301 I-.051 J-.673 E.02945
G3 X143.364 Y31.744 I1.334 J1.281 E.04875
G1 X172.244 Y31.744 E1.09762
G3 X175.816 Y35.321 I-.05 J3.622 E.21265
G1 X175.816 Y139.365 E3.95433
G3 X172.237 Y142.944 I-3.622 J-.043 E.21299
G1 X98.195 Y142.944 E2.81406
G3 X94.616 Y139.365 I.043 J-3.622 E.21299
G1 X94.616 Y35.327 E3.9541
M204 P2000
G1 X95.073 Y35.332 F24000
M73 P3 R114
M204 P500
G1 F1800
G3 X98.165 Y32.203 I3.16 J.03 E.18493
G1 X127.097 Y32.208 E1.0996
G3 X128.055 Y32.886 I-.214 J1.318 E.04618
G2 X128.75 Y33.201 I.695 J-.607 E.0299
G1 X141.682 Y33.201 E.4915
G2 X142.565 Y32.62 I-.032 J-1.01 E.04228
G3 X143.391 Y32.201 I.987 J.924 E.03593
G1 X172.235 Y32.201 E1.09625
G3 X175.359 Y35.331 I-.038 J3.162 E.18612
G1 X175.359 Y139.356 E3.95361
G3 X172.228 Y142.487 I-3.162 J-.031 E.18642
M73 Q3 S119
G1 X98.204 Y142.487 E2.81338
G3 X95.073 Y139.356 I.031 J-3.162 E.18642
G1 X95.073 Y35.392 E3.95129
M204 P2000
G1 X95.53 Y35.392 F24000
M204 P500
G1 F1800
G1 X95.53 Y35.34 E.00198
G3 X98.176 Y32.66 I2.7 J.019 E.1584
G1 X127.063 Y32.665 E1.09789
G3 X127.691 Y33.164 I-.194 J.889 E.03157
G2 X128.738 Y33.658 I1.044 J-.855 E.04547
G1 X141.694 Y33.658 E.49241
G2 X142.9 Y32.931 I-.005 J-1.371 E.0562
G3 X143.421 Y32.658 I.633 J.575 E.02282
G1 X172.225 Y32.658 E1.09473
G3 X174.902 Y35.34 I-.026 J2.703 E.1596
G1 X174.902 Y139.347 E3.95292
G3 X172.22 Y142.03 I-2.703 J-.02 E.15982
G1 X98.213 Y142.03 E2.81273
G3 X95.53 Y139.348 I.02 J-2.703 E.15982
G1 X95.53 Y35.452 E3.94871
M204 P2000
G1 X95.987 Y35.452 F24000
M204 P500
G1 F1800
G1 X95.987 Y35.349 E.00391
G3 X98.204 Y33.116 I2.242 J.009 E.13256
G1 X126.983 Y33.115 E1.09378
G3 X127.333 Y33.45 I-.152 J.51 E.01912
G2 X128.721 Y34.115 I1.401 J-1.142 E.06042
G1 X141.711 Y34.115 E.4937
G2 X143.301 Y33.178 I-.04 J-1.885 E.07329
G1 X143.449 Y33.115 E.00611
G1 X172.215 Y33.115 E1.09329
G3 X174.445 Y35.35 I-.014 J2.244 E.13311
G1 X174.445 Y139.339 E3.95224
G3 X172.211 Y141.572 I-2.244 J-.01 E.13318
M73 Q3 S118
G1 X98.221 Y141.572 E2.81209
G3 X95.987 Y139.339 I.01 J-2.243 E.13318
G1 X95.987 Y35.512 E3.94608
M204 P2000
G1 E-2.5 F4200
G1 Z.4 F720
M486 S0
G1 X143.603 Y34.387 F24000
G1 Z.2 F720
G1 E2.5 F2400
M204 P500
;TYPE:Perimeter
;WIDTH:0.499999
G1 F1800
G1 X143.857 Y34.151 E.01318
G1 X172.046 Y34.153 E1.07136
G1 X172.573 Y34.215 E.02017
G1 X172.913 Y34.388 E.0145
G1 X173.183 Y34.662 E.01462
G1 X173.338 Y34.965 E.01294
G1 X173.409 Y35.516 E.02111
G1 X173.409 Y139.179 E3.93984
G1 X173.344 Y139.703 E.02007
G1 X173.171 Y140.043 E.0145
G1 X172.915 Y140.299 E.01376
G1 X172.575 Y140.472 E.0145
G1 X172.156 Y140.537 E.01612
G1 X98.381 Y140.537 E2.80391
G1 X97.857 Y140.472 E.02007
G1 X97.517 Y140.299 E.0145
G1 X97.261 Y140.043 E.01376
G1 X97.088 Y139.703 E.0145
G1 X97.023 Y139.284 E.01612
G1 X97.023 Y35.509 E3.9441
G1 X97.088 Y34.985 E.02007
G1 X97.261 Y34.645 E.0145
G1 X97.517 Y34.389 E.01376
G1 X97.857 Y34.216 E.0145
G1 X98.276 Y34.151 E.01612
G1 X126.595 Y34.151 E1.0763
G1 X126.893 Y34.471 E.01662
G1 X127.578 Y34.903 E.03078
G1 X128.207 Y35.101 E.02506
G1 X128.708 Y35.151 E.01914
G1 X141.724 Y35.151 E.49469
G1 X141.825 Y35.144 E.00385
G1 X142.61 Y34.998 E.03035
G1 X143.191 Y34.725 E.0244
G1 X143.363 Y34.609 E.00788
G1 X143.559 Y34.428 E.01014
M204 P2000
G1 X143.294 Y34.053 F24000
M204 P500
;TYPE:External perimeter
G1 F1800
G1 X143.527 Y33.838 E.01205
G1 X143.633 Y33.694 E.0068
G1 X172.222 Y33.696 E1.08656
G1 X172.716 Y33.775 E.01901
G1 X173.186 Y34.014 E.02004
G1 X173.558 Y34.391 E.02013
G1 X173.777 Y34.822 E.01837
G1 X173.866 Y35.516 E.02659
G1 X173.866 Y139.319 E3.94517
G1 X173.785 Y139.845 E.02023
G1 X173.546 Y140.315 E.02004
G1 X173.187 Y140.674 E.0193
G1 X172.717 Y140.913 E.02004
G1 X172.191 Y140.994 E.02023
G1 X98.241 Y140.994 E2.81056
G1 X97.715 Y140.913 E.02023
G1 X97.245 Y140.674 E.02004
G1 X96.886 Y140.315 E.0193
G1 X96.647 Y139.845 E.02004
G1 X96.566 Y139.319 E.02023
G1 X96.566 Y35.369 E3.95075
G1 X96.647 Y34.843 E.02023
M73 P3 R113
G1 X96.886 Y34.373 E.02004
G1 X97.245 Y34.014 E.0193
G1 X97.715 Y33.775 E.02004
G1 X98.241 Y33.694 E.02023
G1 X126.811 Y33.694 E1.08584
G1 X127.151 Y34.094 E.01995
G1 X127.715 Y34.467 E.0257
G1 X128.328 Y34.66 E.02443
G1 X128.708 Y34.694 E.0145
G1 X141.724 Y34.694 E.49469
G1 X142.415 Y34.584 E.02659
G1 X143.054 Y34.273 E.02701
G1 X143.25 Y34.093 E.01011
M204 P2000
G1 X143.535 Y33.812 F24000
G1 E-2.5 F4200
G1 Z.4 F720
G1 X173.193 Y35.219 F24000
G1 Z.2 F720
G1 E2.5 F2400
M204 P500
;TYPE:Solid infill
;WIDTH:0.501285
G1 F2700
G1 X172.68 Y34.705 E.02768
G2 X172.155 Y34.542 I-.576 J.924 E.02118
G1 X171.868 Y34.542 E.01094
G1 X173.02 Y35.694 E.06209
G1 X173.02 Y36.342 E.0247
G1 X171.22 Y34.542 E.09702
G1 X170.572 Y34.541 E.0247
G1 X173.02 Y36.99 E.13197
G1 X173.02 Y37.639 E.02474
G1 X169.923 Y34.541 E.16696
G1 X169.275 Y34.541 E.0247
G1 X173.02 Y38.287 E.20188
G1 X173.02 Y38.935 E.0247
G1 X168.627 Y34.541 E.23681
G1 X167.978 Y34.541 E.02474
G1 X173.02 Y39.583 E.27176
G1 X173.02 Y40.231 E.0247
G1 X167.33 Y34.541 E.30669
G1 X166.682 Y34.541 E.0247
G1 X173.02 Y40.88 E.34165
G1 X173.02 Y41.528 E.0247
G1 X166.034 Y34.541 E.37657
G1 X165.385 Y34.541 E.02474
G1 X173.02 Y42.176 E.41153
G1 X173.02 Y42.824 E.0247
G1 X164.737 Y34.541 E.44646
G1 X164.089 Y34.541 E.0247
G1 X173.02 Y43.473 E.48141
G1 X173.02 Y44.121 E.0247
G1 X163.441 Y34.541 E.51634
G1 X162.792 Y34.541 E.02474
G1 X173.02 Y44.769 E.55129
G1 X173.02 Y45.417 E.0247
G1 X162.144 Y34.541 E.58622
G1 X161.496 Y34.541 E.0247
G1 X173.02 Y46.066 E.62117
G1 X173.02 Y46.714 E.0247
G1 X160.847 Y34.541 E.65613
G1 X160.199 Y34.541 E.0247
G1 X173.02 Y47.362 E.69105
G1 X173.02 Y48.01 E.0247
M73 P4 R113
G1 X159.551 Y34.541 E.72598
G1 X158.903 Y34.541 E.0247
G1 X173.02 Y48.658 E.76091
G1 X173.02 Y49.307 E.02474
G1 X158.254 Y34.541 E.79589
G1 X157.606 Y34.541 E.0247
G1 X173.02 Y49.955 E.83082
G1 X173.02 Y50.603 E.0247
G1 X156.958 Y34.54 E.86577
G1 X156.31 Y34.54 E.0247
G1 X173.02 Y51.251 E.9007
G1 X173.02 Y51.9 E.02474
G1 X155.661 Y34.54 E.93568
G1 X155.013 Y34.54 E.0247
G1 X173.02 Y52.548 E.97061
G1 X173.02 Y53.196 E.0247
G1 X154.365 Y34.54 E1.00554
G1 X153.716 Y34.54 E.02474
G1 X173.02 Y53.844 E1.04049
G1 X173.02 Y54.492 E.0247
G1 X153.068 Y34.54 E1.07542
G1 X152.42 Y34.54 E.0247
G1 X173.02 Y55.141 E1.11037
G1 X173.02 Y55.789 E.0247
G1 X151.772 Y34.54 E1.1453
G1 X151.123 Y34.54 E.02474
G1 X173.02 Y56.437 E1.18025
G1 X173.02 Y57.085 E.0247
G1 X150.475 Y34.54 E1.21518
G1 X149.827 Y34.54 E.0247
M73 Q4 S118
G1 X173.02 Y57.734 E1.25013
G1 X173.02 Y58.382 E.0247
G1 X149.179 Y34.54 E1.28506
G1 X148.53 Y34.54 E.02474
G1 X173.02 Y59.03 E1.32002
G1 X173.02 Y59.678 E.0247
G1 X147.882 Y34.54 E1.35494
G1 X147.234 Y34.54 E.0247
G1 X173.02 Y60.326 E1.38987
G1 X173.02 Y60.975 E.02474
G1 X146.585 Y34.54 E1.42485
G1 X145.937 Y34.54 E.0247
G1 X173.02 Y61.623 E1.45978
G1 X173.02 Y62.271 E.0247
G1 X145.289 Y34.54 E1.49471
G1 X144.641 Y34.54 E.0247
G1 X173.02 Y62.919 E1.52963
G1 X173.02 Y63.568 E.02474
G1 X144.003 Y34.55 E1.56405
G1 X143.665 Y34.86 E.01748
M73 Q4 S117
