; generated by PrusaSlicer 2.9.2 on 2025-05-16 at 20:14:48 UTC


;
;

;
;

;
;

;
;
; 

; external perimeters extrusion width = 0.45mm
; perimeters extrusion width = 0.45mm
; infill extrusion width = 0.45mm
; solid infill extrusion width = 0.45mm
; top infill extrusion width = 0.42mm
; support material extrusion width = 0.36mm
; first layer extrusion width = 0.50mm

; external perimeters extrusion width = 0.45mm
; perimeters extrusion width = 0.45mm
; infill extrusion width = 0.45mm
; solid infill extrusion width = 0.45mm
; top infill extrusion width = 0.42mm
; support material extrusion width = 0.36mm
; first layer extrusion width = 0.50mm

; external perimeters extrusion width = 0.45mm
; perimeters extrusion width = 0.45mm
; infill extrusion width = 0.45mm
; solid infill extrusion width = 0.45mm
; top infill extrusion width = 0.42mm
; support material extrusion width = 0.36mm
; first layer extrusion width = 0.50mm

M73 P0 R144
M73 Q0 S152
M201 X4000 Y4000 Z400 E5000 ; sets maximum accelerations, mm/sec^2
M203 X400 Y400 Z12 E80 ; sets maximum feedrates, mm / sec
M204 P4000 R1250 T4000 ; sets acceleration (P, T) and retract acceleration (R), mm/sec^2
M205 X8.00 Y8.00 Z2.00 E10.00 ; sets the jerk limits, mm/sec
M205 S0 T0 ; sets the minimum extruding and travel feed rate, mm/sec

M486 S0
M486 ALighting Lid v1.stl
M486 S-1
M486 S1
M486 AMain v1.stl
M486 S-1
M486 S2
M486 ABase Lid v2.stl
M486 S-1

;TYPE:Custom
M862.3 P "MINI" ; printer model check
M862.1 P0.4 A0 F0 ; nozzle check
M862.5 P2 ; g-code level check
M862.6 P"Input shaper" ; FW feature check
M115 U6.2.4+8909
G90 ; use absolute coordinates
M83 ; extruder relative mode
M104 S170 ; set extruder temp for bed leveling
M140 S60 ; set bed temp
M109 R170 ; wait for bed leveling temp
M190 S60 ; wait for bed temp
M569 S1 X Y ; set stealthchop for X Y
M204 T1250 ; set travel acceleration
G28 ; home all without mesh bed level
G29 ; mesh bed leveling 
M104 S230 ; set extruder temp
G92 E0

G1 X0 Y-2 Z3 F2400

M109 S230 ; wait for extruder temp

; intro line
G1 X10 Z0.2 F1000
G1 X70 E8 F900
G1 X140 E10 F700
G92 E0

M569 S0 X Y ; set spreadcycle for X Y
M204 T4000 ; restore travel acceleration
M572 W0.06 ; set smooth time
M221 S95 ; set flow
G21 ; set units to millimeters
G90 ; use absolute coordinates
M83 ; use relative distances for extrusion
M572 S0.27
M107
;LAYER_CHANGE
;Z:0.2
;HEIGHT:0.2
G1 E-2.5 F4200
G1 Z.4 F720
G1 X5.103 Y30.401 F24000
G1 Z.2 F720
G1 E2.5 F2400
M204 P500
;TYPE:Skirt/Brim
;WIDTH:0.5
G1 F1800
G3 X5.403 Y30.36 I.904 J5.385 E.01151
G1 X49.026 Y30.364 E1.65795
G3 X53.055 Y34.23 I-.426 J4.476 E.22897
G1 X53.078 Y53.36 E.72706
G1 X74.595 Y53.36 E.81778
G1 X74.609 Y34.327 E.72337
G3 X75.491 Y32.102 I4.652 J.557 E.09199
G3 X77.116 Y30.779 I4.251 J3.564 E.08012
G3 X78.709 Y30.36 I2.135 J4.871 E.06286
G1 X122.27 Y30.36 E1.65559
G3 X124.418 Y31.045 I-.791 J6.185 E.08616
M73 Q0 S151
G1 X124.426 Y15.231 E.60103
G3 X128.534 Y11.21 I4.467 J.455 E.23709
G1 X175.847 Y11.215 E1.79819
G3 X179.902 Y15.318 I-.421 J4.471 E.23808
G1 X179.902 Y70.587 E2.10057
G3 X175.787 Y74.695 I-4.476 J-.369 E.24036
G1 X128.525 Y74.695 E1.79625
G3 X126.379 Y74.016 I.814 J-6.304 E.086
G1 X126.379 Y99.059 E.95179
G1 X173.888 Y99.064 E1.80564
G3 X177.939 Y103.167 I-.426 J4.471 E.23793
G1 X177.939 Y167.332 E2.43868
G3 X174.993 Y171.202 I-4.516 J-.381 E.19512
G1 X173.834 Y171.444 E.045
G1 X126.566 Y171.444 E1.79648
G3 X122.464 Y167.429 I.362 J-4.474 E.23669
G1 X122.454 Y147.344 E.76336
G1 X5.405 Y147.344 E4.4486
G3 X1.536 Y144.396 I.382 J-4.515 E.19514
G1 X1.295 Y143.239 E.04492
G1 X1.295 Y34.468 E4.13399
G3 X2.169 Y32.133 I4.72 J.435 E.09589
G3 X3.667 Y30.853 I4.45 J3.694 E.07525
G3 X5.044 Y30.412 I2.34 J4.933 E.05511
M204 P2000
M204 T4000
G1 X5.123 Y30.86 F24000
M204 P500
G1 F1800
G3 X5.425 Y30.817 I.849 J4.808 E.0116
G1 X49.003 Y30.821 E1.65624
G3 X52.603 Y34.302 I-.397 J4.013 E.20535
G1 X52.622 Y53.817 E.74169
G1 X75.052 Y53.817 E.85248
G1 X75.061 Y34.398 E.73804
G3 X75.859 Y32.373 I4.173 J.476 E.08368
M73 P0 R143
G3 X77.909 Y30.963 I3.378 J2.715 E.09591
G1 X78.73 Y30.817 E.03169
G1 X122.248 Y30.817 E1.65396
G3 X124.875 Y32.003 I-.556 J4.732 E.11129
G1 X124.879 Y15.297 E.63493
G3 X128.553 Y11.667 I4.01 J.385 E.21307
G1 X175.825 Y11.672 E1.79664
G3 X179.445 Y15.34 I-.394 J4.009 E.21252
G1 X179.445 Y70.565 E2.0989
G3 X175.767 Y74.238 I-4.014 J-.342 E.21472
G1 X128.548 Y74.238 E1.79462
G3 X125.922 Y72.974 I.388 J-4.167 E.11313
G1 X125.922 Y99.632 E1.01317
G1 X126.585 Y99.516 E.02558
G1 X173.865 Y99.521 E1.79694
G3 X177.482 Y103.189 I-.398 J4.009 E.21241
G1 X177.482 Y167.312 E2.43708
G3 X173.81 Y170.987 I-4.014 J-.339 E.21459
G1 X126.586 Y170.987 E1.79481
G3 X122.916 Y167.36 I.338 J-4.013 E.21285
G1 X122.911 Y146.772 E.78247
G1 X122.249 Y146.887 E.02554
G1 X5.426 Y146.887 E4.44001
G3 X1.752 Y143.216 I.339 J-4.013 E.21453
G1 X1.752 Y34.489 E4.13231
G3 X2.512 Y32.436 I4.232 J.399 E.08415
G3 X3.893 Y31.251 I4.04 J3.312 E.06952
G3 X5.064 Y30.871 I2.079 J4.417 E.04691
M204 P2000
G1 X5.148 Y31.319 F24000
M204 P500
G1 F1800
G3 X5.447 Y31.274 I.783 J4.197 E.01149
G1 X48.98 Y31.278 E1.65453
G3 X52.151 Y34.374 I-.369 J3.55 E.18173
G1 X52.165 Y54.274 E.75633
G1 X75.509 Y54.274 E.88722
G1 X75.513 Y34.467 E.75279
G3 X76.228 Y32.644 I3.683 J.393 E.07532
G3 X78.014 Y31.408 I2.983 J2.402 E.0837
G1 X78.751 Y31.274 E.02847
G1 X122.226 Y31.274 E1.65233
G3 X125.017 Y33.036 I-.35 J3.645 E.13013
G1 X125.332 Y32.933 E.0126
G1 X125.332 Y15.362 E.66781
G3 X128.573 Y12.125 I3.553 J.316 E.18904
G1 X175.803 Y12.129 E1.79504
G3 X178.988 Y15.363 I-.368 J3.548 E.18699
G1 X178.988 Y70.543 E2.09719
G3 X175.747 Y73.781 I-3.553 J-.315 E.18908
M73 Q0 S150
G1 X128.57 Y73.781 E1.79302
G3 X125.786 Y72.004 I.325 J-3.58 E.13042
G1 X125.465 Y72.104 E.01278
G1 X125.465 Y100.266 E1.07033
G3 X126.606 Y99.973 I1.562 J3.724 E.04493
G1 X173.841 Y99.978 E1.79523
G3 X177.025 Y103.212 I-.369 J3.547 E.18696
G1 X177.025 Y167.291 E2.43541
G3 X173.787 Y170.53 I-3.552 J-.313 E.18902
G1 X126.607 Y170.53 E1.79314
G3 X123.368 Y167.293 I.314 J-3.553 E.18898
G1 X123.368 Y146.138 E.80402
G3 X122.227 Y146.43 I-1.562 J-3.726 E.04492
G1 X5.447 Y146.43 E4.43838
G3 X2.209 Y143.193 I.313 J-3.551 E.18896
M73 P1 R143
G1 X2.209 Y34.512 E4.13057
G3 X2.857 Y32.737 I3.748 J.362 E.07259
M73 Q1 S150
G3 X4.09 Y31.664 I3.68 J2.984 E.06243
G3 X5.089 Y31.33 I1.841 J3.852 E.04014
M204 P2000
G1 X5.18 Y31.789 F24000
M204 P500
G1 F1800
G1 X5.47 Y31.731 E.01124
G1 X48.956 Y31.735 E1.65274
G3 X51.699 Y34.444 I-.34 J3.088 E.15807
G1 X51.708 Y54.731 E.77103
G1 X75.966 Y54.731 E.92196
G1 X75.97 Y34.491 E.76925
G3 X78.773 Y31.731 I3.084 J.328 E.16195
G1 X122.205 Y31.731 E1.65069
G3 X125.008 Y34.534 I-.287 J3.089 E.16343
G1 X125.008 Y100.977 E2.52525
G3 X126.628 Y100.431 I2.353 J4.3 E.06531
G1 X173.816 Y100.435 E1.79344
G3 X176.568 Y103.234 I-.339 J3.085 E.16151
M73 P1 R142
G1 X176.568 Y167.269 E2.43374
G3 X173.764 Y170.073 I-3.09 J-.286 E.1635
G1 X126.629 Y170.073 E1.79143
G3 X123.826 Y167.269 I.286 J-3.09 E.16346
G1 X123.826 Y145.426 E.83017
G3 X122.205 Y145.973 I-2.354 J-4.302 E.06536
G1 X5.468 Y145.973 E4.43674
G3 X2.666 Y143.169 I.287 J-3.089 E.16343
G1 X2.666 Y34.535 E4.12878
G3 X3.204 Y33.035 I3.268 J.326 E.06118
G3 X4.766 Y31.871 I2.73 J2.034 E.07509
G1 X5.122 Y31.8 E.0138
M204 P2000
G1 X5.211 Y32.231 F24000
M204 P500
G1 F1800
G3 X5.492 Y32.188 I.539 J2.584 E.01081
G1 X48.932 Y32.192 E1.65099
G3 X51.246 Y34.514 I-.312 J2.626 E.13438
G1 X51.251 Y55.188 E.78574
G1 X76.423 Y55.188 E.9567
G1 X76.423 Y34.557 E.78411
G3 X78.794 Y32.188 I2.627 J.258 E.13801
G1 X122.183 Y32.188 E1.64906
G3 X124.551 Y34.557 I-.26 J2.627 E.1379
G1 X124.551 Y102.181 E2.57014
G3 X125.556 Y101.238 I4.183 J3.451 E.05252
G3 X126.651 Y100.888 I1.486 J2.761 E.04394
G1 X173.791 Y100.892 E1.79162
G3 X176.111 Y103.257 I-.31 J2.624 E.13609
G1 X176.111 Y167.247 E2.43202
G3 X173.741 Y169.615 I-2.628 J-.259 E.13794
G1 X126.651 Y169.615 E1.78972
G3 X124.283 Y167.246 I.259 J-2.627 E.13791
G1 X124.283 Y144.257 E.87373
G3 X122.724 Y145.411 I-2.823 J-2.185 E.07466
G1 X122.183 Y145.516 E.02095
G1 X5.491 Y145.516 E4.43503
G3 X3.123 Y143.147 I.26 J-2.628 E.1379
G1 X3.123 Y34.557 E4.12711
G3 X5.153 Y32.244 I2.627 J.258 E.12487
M73 Q1 S149
M204 P2000
G1 E-2.5 F4200
G1 Z.4 F720
G1 X125.026 Y102.41 F24000
G1 Z.2 F720
G1 E2.5 F2400
M204 P500
G1 F1800
G3 X126.675 Y101.345 I1.879 J1.1 E.0774
G1 X173.767 Y101.349 E1.78979
G3 X175.653 Y103.279 I-.284 J2.164 E.11056
G1 X175.653 Y167.224 E2.43031
G3 X173.719 Y169.158 I-2.165 J-.231 E.11239
G1 X126.674 Y169.158 E1.78801
G3 X124.74 Y167.224 I.231 J-2.165 E.11239
G1 X124.74 Y103.279 E2.43031
G3 X124.996 Y102.462 I2.165 J.231 E.03275
M204 P2000
G1 X125.396 Y102.681 F24000
M204 P500
G1 F1800
G3 X126.697 Y101.802 I1.506 J.826 E.06197
G1 X173.742 Y101.806 E1.78801
G3 X175.196 Y103.302 I-.257 J1.705 E.08515
G1 X175.196 Y167.201 E2.42857
G3 X173.696 Y168.701 I-1.705 J-.205 E.0869
G1 X126.697 Y168.701 E1.78626
G3 X125.197 Y167.201 I.205 J-1.705 E.0869
G1 X125.197 Y103.302 E2.42857
G3 X125.368 Y102.735 I1.705 J.205 E.02262
M204 P2000
G1 X125.775 Y102.94 F24000
M204 P500
G1 F1800
G3 X126.719 Y102.259 I1.127 J.567 E.04598
G1 X173.716 Y102.263 E1.78618
G3 X174.739 Y103.324 I-.233 J1.249 E.05976
G1 X174.739 Y167.179 E2.42689
G3 X173.674 Y168.244 I-1.248 J-.183 E.06134
G1 X126.719 Y168.244 E1.78459
G3 X125.654 Y167.179 I.183 J-1.248 E.06134
G1 X125.654 Y103.324 E2.42689
G3 X125.75 Y102.994 I1.248 J.183 E.0131
M204 P2000
G1 X126.165 Y103.181 F24000
M204 P500
G1 F1800
G3 X126.742 Y102.716 I.746 J.334 E.02923
G1 X173.696 Y102.725 E1.78455
G3 X174.282 Y103.347 I-.22 J.795 E.03414
M73 P1 R141
G1 X174.282 Y167.156 E2.42515
G3 X173.651 Y167.787 I-.799 J-.168 E.03588
G1 X126.742 Y167.787 E1.78284
G3 X126.111 Y167.156 I.169 J-.799 E.03588
G1 X126.111 Y103.347 E2.42515
G3 X126.143 Y103.236 I.8 J.168 E.00439
M204 P2000
G1 X126.573 Y103.399 F24000
M204 P500
G1 F1800
G3 X126.81 Y103.173 I.356 J.135 E.01287
G1 X173.583 Y103.173 E1.77767
G3 X173.825 Y103.415 I-.119 J.361 E.01349
G1 X173.825 Y167.088 E2.41998
G3 X173.583 Y167.33 I-.361 J-.119 E.01349
G1 X126.81 Y167.33 E1.77767
G3 X126.568 Y167.088 I.119 J-.361 E.01349
M73 P2 R141
G1 X126.568 Y103.458 E2.41834
M204 P2000
G1 E-2.5 F4200
G1 Z.4 F720
G1 X124.094 Y103.458 F24000
G1 Z.2 F720
G1 E2.5 F2400
M204 P500
G1 F1800
G1 X124.094 Y143.124 E1.50756
G3 X122.159 Y145.059 I-2.166 J-.231 E.11246
G1 X5.515 Y145.059 E4.43321
G3 X3.58 Y143.124 I.231 J-2.166 E.11246
M73 Q2 S149
G1 X3.58 Y34.58 E4.12536
G3 X5.515 Y32.645 I2.166 J.231 E.11245
G1 X48.907 Y32.649 E1.64917
G3 X50.794 Y34.58 I-.283 J2.165 E.11063
G1 X50.794 Y55.645 E.8006
G1 X76.88 Y55.645 E.99143
G1 X76.88 Y34.58 E.8006
G3 X78.815 Y32.645 I2.167 J.232 E.11244
G1 X122.159 Y32.645 E1.64735
G3 X124.094 Y34.58 I-.231 J2.166 E.11246
G1 X124.094 Y103.398 E2.61552
M204 P2000
G1 X123.637 Y103.398 F24000
M204 P500
G1 F1800
G1 X123.637 Y143.101 E1.50897
G3 X122.136 Y144.602 I-1.706 J-.205 E.08696
G1 X5.537 Y144.602 E4.4315
G3 X4.037 Y143.101 I.206 J-1.706 E.08693
M73 Q2 S148
G1 X4.037 Y34.602 E4.12365
G3 X5.537 Y33.102 I1.706 J.206 E.08689
G1 X48.882 Y33.107 E1.64738
G3 X50.337 Y34.602 I-.257 J1.705 E.08515
G1 X50.337 Y56.102 E.81714
G1 X77.337 Y56.102 E1.02617
G1 X77.337 Y34.602 E.81714
G3 X78.835 Y33.102 I1.708 J.208 E.08681
G1 X122.136 Y33.102 E1.64571
G3 X123.637 Y34.602 I-.205 J1.706 E.08693
G1 X123.637 Y103.338 E2.6124
M204 P2000
G1 X123.18 Y103.338 F24000
M204 P500
G1 F1800
G1 X123.18 Y143.079 E1.51041
G3 X122.114 Y144.145 I-1.249 J-.183 E.06141
G1 X5.56 Y144.145 E4.42979
G3 X4.494 Y143.079 I.183 J-1.249 E.06141
G1 X4.494 Y34.625 E4.12194
G3 X5.56 Y33.559 I1.249 J.183 E.0614
G1 X48.856 Y33.564 E1.64552
G3 X49.88 Y34.625 I-.233 J1.249 E.05979
G1 X49.88 Y56.559 E.83363
G1 X77.794 Y56.559 E1.06091
G1 X77.794 Y34.625 E.83363
M73 P2 R140
G3 X78.86 Y33.559 I1.249 J.183 E.0614
G1 X122.114 Y33.559 E1.64393
G3 X123.18 Y34.625 I-.183 J1.249 E.06141
G1 X123.18 Y103.278 E2.60925
M204 P2000
G1 X122.722 Y103.278 F24000
M204 P500
G1 F1800
G1 X122.722 Y143.057 E1.51185
G3 X122.092 Y143.688 I-.799 J-.169 E.03585
G1 X5.582 Y143.688 E4.42812
G3 X4.951 Y143.057 I.169 J-.8 E.03588
G1 X4.951 Y34.647 E4.12027
G3 X5.582 Y34.016 I.8 J.169 E.03588
G1 X48.836 Y34.025 E1.64393
G3 X49.422 Y34.647 I-.22 J.795 E.03414
G1 X49.422 Y57.016 E.85016
G1 X78.251 Y57.016 E1.09568
G1 X78.251 Y34.647 E.85016
G3 X78.882 Y34.016 I.8 J.169 E.03588
G1 X122.092 Y34.016 E1.64225
G3 X122.722 Y34.647 I-.169 J.8 E.03585
G1 X122.722 Y103.218 E2.60613
M204 P2000
G1 X122.265 Y103.218 F24000
M204 P500
G1 F1800
G1 X122.265 Y142.989 E1.51155
G3 X122.024 Y143.23 I-.361 J-.12 E.01343
G1 X5.65 Y143.23 E4.42295
G3 X5.408 Y142.989 I.119 J-.361 E.01346
G1 X5.408 Y34.715 E4.1151
G3 X5.65 Y34.473 I.361 J.119 E.01349
G1 X48.724 Y34.473 E1.63708
G3 X48.965 Y34.715 I-.12 J.361 E.01346
G1 X48.965 Y57.473 E.86495
G1 X78.708 Y57.473 E1.13042
M73 Q2 S147
G1 X78.708 Y34.715 E.86495
G3 X78.95 Y34.473 I.361 J.119 E.01349
G1 X122.024 Y34.473 E1.63708
G3 X122.265 Y34.715 I-.12 J.361 E.01346
G1 X122.265 Y103.158 E2.60127
M204 P2000
G1 E-2.5 F4200
M73 P3 R140
G1 Z.4 F720
G1 X128.269 Y73.276 F24000
G1 Z.2 F720
G1 E2.5 F2400
M204 P500
G1 F1800
G3 X125.789 Y70.52 I.611 J-3.043 E.15101
G1 X125.789 Y15.386 E2.09544
G3 X128.593 Y12.582 I3.091 J.287 E.16348
G1 X175.78 Y12.586 E1.7934
G3 X178.531 Y15.386 I-.341 J3.086 E.1615
G1 X178.531 Y70.52 E2.09544
G3 X175.727 Y73.324 I-3.091 J-.287 E.16348
G1 X128.593 Y73.324 E1.79139
G3 X128.327 Y73.287 I.287 J-3.091 E.01021
M204 P2000
G1 X128.408 Y72.838 F24000
M204 P500
G1 F1800
G3 X126.246 Y70.498 I.467 J-2.601 E.12996
G1 X126.246 Y15.408 E2.09377
G3 X128.614 Y13.039 I2.63 J.26 E.13788
G1 X175.755 Y13.043 E1.79166
G3 X178.074 Y15.408 I-.312 J2.625 E.13605
G1 X178.074 Y70.497 E2.09373
G3 X175.706 Y72.867 I-2.63 J-.26 E.13792
M73 Q3 S147
G1 X128.615 Y72.867 E1.78976
G3 X128.467 Y72.848 I.26 J-2.63 E.00567
M204 P2000
G1 X128.537 Y72.396 F24000
M204 P500
G1 F1800
G3 X126.703 Y70.476 I.334 J-2.155 E.10849
G1 X126.703 Y15.43 E2.0921
G3 X128.637 Y13.496 I2.168 J.234 E.11236
G1 X175.73 Y13.5 E1.78983
G3 X177.617 Y15.43 I-.283 J2.164 E.1106
G1 X177.617 Y70.475 E2.09206
G3 X175.683 Y72.409 I-2.169 J-.234 E.11236
G1 X128.638 Y72.409 E1.78801
G3 X128.597 Y72.405 I.233 J-2.168 E.00157
M73 P3 R139
M204 P2000
G1 X128.654 Y71.952 F24000
M204 P500
G1 F1800
G3 X127.16 Y70.452 I.214 J-1.707 E.08667
G1 X127.16 Y15.453 E2.09031
G3 X128.66 Y13.953 I1.708 J.208 E.08688
G1 X175.705 Y13.957 E1.78801
G3 X177.16 Y15.453 I-.257 J1.705 E.08519
G1 X177.16 Y70.452 E2.09031
G3 X175.66 Y71.952 I-1.708 J-.207 E.08688
G1 X128.714 Y71.952 E1.78424
M204 P2000
G1 X128.714 Y71.495 F24000
M204 P500
G1 F1800
G1 X128.683 Y71.495 E.00118
G3 X127.617 Y70.43 I.184 J-1.249 E.06137
G1 X127.617 Y15.475 E2.08864
G3 X128.683 Y14.41 I1.25 J.184 E.06137
G1 X175.679 Y14.414 E1.78615
G3 X176.703 Y15.475 I-.233 J1.249 E.05979
G1 X176.703 Y70.43 E2.08864
G3 X175.637 Y71.495 I-1.25 J-.184 E.06137
G1 X128.774 Y71.495 E1.78109
M204 P2000
G1 X128.774 Y71.038 F24000
M204 P500
G1 F1800
G1 X128.705 Y71.038 E.00262
G3 X128.074 Y70.407 I.169 J-.799 E.03588
G1 X128.074 Y15.498 E2.08689
G3 X128.705 Y14.867 I.8 J.169 E.03588
G1 X175.659 Y14.876 E1.78455
G3 X176.246 Y15.498 I-.22 J.795 E.03417
G1 X176.246 Y70.407 E2.08689
G3 X175.615 Y71.038 I-.8 J-.168 E.03588
G1 X128.834 Y71.038 E1.77797
M204 P2000
G1 X128.834 Y70.581 F24000
M204 P500
G1 F1800
G1 X128.773 Y70.581 E.00232
G3 X128.531 Y70.339 I.119 J-.361 E.01349
G1 X128.531 Y15.566 E2.08172
G3 X128.773 Y15.324 I.361 J.119 E.01349
G1 X175.547 Y15.324 E1.77771
G3 X175.788 Y15.566 I-.119 J.361 E.01346
G1 X175.788 Y70.339 E2.08172
G3 X175.547 Y70.581 I-.36 J-.119 E.01346
G1 X128.894 Y70.581 E1.77311
M204 P2000
G1 E-2.5 F4200
G1 Z.4 F720
M486 S2
G1 X11.737 Y38.307 F24000
G1 Z.2 F720
G1 E2.5 F2400
M204 P500
;TYPE:Perimeter
;WIDTH:0.499999
G1 F1800
G1 X12.298 Y38.361 E.02142
G1 X12.911 Y38.589 E.02486
G1 X13.444 Y38.969 E.02488
G1 X13.86 Y39.473 E.02484
G1 X14.132 Y40.068 E.02486
G1 X14.24 Y40.712 E.02482
G1 X14.178 Y41.363 E.02485
