; generated by PrusaSlicer 2.9.2 on 2025-05-24 at 00:22:28 UTC


;
;

;
;

;
;

;
;
; 

; external perimeters extrusion width = 0.45mm
; perimeters extrusion width = 0.45mm
; infill extrusion width = 0.45mm
; solid infill extrusion width = 0.45mm
; top infill extrusion width = 0.42mm
; support material extrusion width = 0.36mm
; first layer extrusion width = 0.50mm

M73 P0 R44
M73 Q0 S45
M201 X4000 Y4000 Z400 E5000 ; sets maximum accelerations, mm/sec^2
M203 X400 Y400 Z12 E80 ; sets maximum feedrates, mm / sec
M204 P4000 R1250 T4000 ; sets acceleration (P, T) and retract acceleration (R), mm/sec^2
M205 X8.00 Y8.00 Z2.00 E10.00 ; sets the jerk limits, mm/sec
M205 S0 T0 ; sets the minimum extruding and travel feed rate, mm/sec

M486 S0
M486 ALid v4.stl
M486 S-1

;TYPE:Custom
M862.3 P "MINI" ; printer model check
M862.1 P0.4 A0 F0 ; nozzle check
M862.5 P2 ; g-code level check
M862.6 P"Input shaper" ; FW feature check
M115 U6.2.4+8909
G90 ; use absolute coordinates
M83 ; extruder relative mode
M104 S170 ; set extruder temp for bed leveling
M140 S60 ; set bed temp
M109 R170 ; wait for bed leveling temp
M190 S60 ; wait for bed temp
M569 S1 X Y ; set stealthchop for X Y
M204 T1250 ; set travel acceleration
G28 ; home all without mesh bed level
G29 ; mesh bed leveling 
M104 S230 ; set extruder temp
G92 E0

G1 X0 Y-2 Z3 F2400

M109 S230 ; wait for extruder temp

; intro line
G1 X10 Z0.2 F1000
G1 X70 E8 F900
G1 X140 E10 F700
G92 E0

M569 S0 X Y ; set spreadcycle for X Y
M204 T4000 ; restore travel acceleration
M572 W0.06 ; set smooth time
M221 S95 ; set flow
G21 ; set units to millimeters
G90 ; use absolute coordinates
M83 ; use relative distances for extrusion
M572 S0.27
M107
;LAYER_CHANGE
;Z:0.2
;HEIGHT:0.2
G1 E-2.5 F4200
G1 Z.4 F720
G1 X47.852 Y34.318 F24000
G1 Z.2 F720
G1 E2.5 F2400
M204 P500
;TYPE:Skirt/Brim
;WIDTH:0.5
G1 F1800
G3 X52.877 Y31.659 I5.182 J3.717 E.22395
G1 X82.064 Y31.665 E1.10929
G3 X84.067 Y32.325 I-.682 J5.436 E.08066
G1 X84.495 Y32.658 E.02061
G1 X95.506 Y32.658 E.41849
G3 X96.766 Y31.919 I2.868 J3.448 E.05577
G1 X98.006 Y31.658 E.04816
G1 X127.085 Y31.658 E1.10519
G3 X133.342 Y37.91 I-.123 J6.38 E.37142
G1 X133.342 Y142.081 E3.95916
G3 X127.075 Y148.342 I-6.378 J-.117 E.37216
M73 P0 R43
G1 X52.919 Y148.342 E2.8184
G3 X46.658 Y142.075 I.117 J-6.378 E.37216
G1 X46.658 Y37.919 E3.95859
G3 X47.817 Y34.367 I6.376 J.116 E.14412
M204 P2000
M204 T4000
G1 X48.19 Y34.629 F24000
M204 P500
G1 F1800
G3 X52.887 Y32.116 I4.842 J3.403 E.21001
G1 X82.04 Y32.122 E1.108
G3 X84.334 Y33.115 I-.396 J4.06 E.09656
G1 X95.667 Y33.115 E.43073
G3 X98.03 Y32.115 I2.704 J3.098 E.09918
G1 X127.076 Y32.115 E1.10393
G3 X132.885 Y37.922 I-.111 J5.92 E.34497
M73 P1 R43
M73 Q1 S45
G1 X132.885 Y142.071 E3.95832
G3 X127.066 Y147.885 I-5.919 J-.105 E.34563
G1 X52.929 Y147.885 E2.81767
G3 X47.115 Y142.066 I.105 J-5.919 E.34563
G1 X47.115 Y37.929 E3.95786
G3 X48.156 Y34.679 I5.917 J.103 E.13157
M204 P2000
G1 X48.532 Y34.937 F24000
M204 P500
G1 F1800
G3 X52.898 Y32.573 I4.497 J3.093 E.1959
G1 X82.015 Y32.579 E1.10663
G3 X84.17 Y33.572 I-.393 J3.689 E.09179
G1 X95.83 Y33.572 E.44315
G3 X98.053 Y32.572 I2.56 J2.721 E.09437
G1 X127.066 Y32.572 E1.10268
G3 X132.428 Y37.933 I-.098 J5.46 E.31852
G1 X132.428 Y142.061 E3.95752
G3 X127.057 Y147.428 I-5.459 J-.092 E.3191
G1 X52.939 Y147.428 E2.81695
G3 X47.572 Y142.057 I.092 J-5.459 E.3191
G1 X47.572 Y37.939 E3.95714
G3 X48.498 Y34.987 I5.457 J.091 E.11922
M73 Q1 S44
M204 P2000
G1 X48.877 Y35.241 F24000
M204 P500
G1 F1800
G3 X52.908 Y33.03 I4.15 J2.786 E.18157
G1 X81.99 Y33.036 E1.1053
G3 X84.005 Y34.029 I-.413 J3.378 E.08701
G1 X95.995 Y34.029 E.4557
G3 X98.076 Y33.029 I2.435 J2.401 E.08951
G1 X127.057 Y33.029 E1.10146
G3 X131.971 Y37.944 I-.087 J5.001 E.29204
M73 P2 R43
G1 X131.971 Y142.051 E3.95672
G3 X127.048 Y146.971 I-5 J-.08 E.29257
M73 Q2 S44
G1 X52.949 Y146.971 E2.81623
G3 X48.029 Y142.048 I.08 J-5 E.29257
G1 X48.029 Y37.949 E3.95642
G3 X48.844 Y35.291 I4.998 J.078 E.10707
M204 P2000
G1 X49.226 Y35.541 F24000
M204 P500
G1 F1800
G3 X52.918 Y33.488 I3.798 J2.484 E.167
G1 X81.966 Y33.493 E1.10401
G3 X83.77 Y34.486 I-.31 J2.697 E.08027
G1 X96.23 Y34.486 E.47356
G3 X98.098 Y33.486 I2.122 J1.719 E.0827
G1 X127.047 Y33.486 E1.10025
G3 X131.514 Y37.955 I-.074 J4.541 E.26559
G1 X131.514 Y142.041 E3.95593
G3 X127.039 Y146.514 I-4.54 J-.067 E.26605
G1 X52.959 Y146.514 E2.81551
G3 X48.486 Y142.039 I.067 J-4.54 E.26605
G1 X48.486 Y37.959 E3.9557
G3 X49.193 Y35.591 I4.538 J.066 E.09513
M204 P2000
G1 X49.578 Y35.836 F24000
M204 P500
G1 F1800
G3 X52.929 Y33.945 I3.444 J2.186 E.15229
G1 X81.939 Y33.95 E1.10256
G3 X83.538 Y34.943 I-.272 J2.22 E.07384
G1 X96.462 Y34.943 E.49119
G3 X98.122 Y33.943 I1.876 J1.236 E.07615
M73 P2 R42
G1 X127.038 Y33.943 E1.09899
G3 X131.057 Y37.966 I-.062 J4.081 E.2391
M73 P3 R42
G1 X131.057 Y142.031 E3.95513
G3 X127.03 Y146.057 I-4.081 J-.055 E.23952
M73 Q3 S44
G1 X52.969 Y146.057 E2.81479
G3 X48.943 Y142.03 I.055 J-4.081 E.23952
G1 X48.943 Y37.969 E3.95498
G3 X49.547 Y35.887 I4.079 J.053 E.08339
M204 P2000
G1 X49.935 Y36.126 F24000
M204 P500
G1 F1800
G3 X52.939 Y34.402 I3.084 J1.894 E.13726
G1 X81.911 Y34.407 E1.10112
G3 X83.282 Y35.327 I-.354 J2.008 E.06461
G1 X83.563 Y35.4 E.01103
G1 X96.437 Y35.4 E.48929
G2 X97.021 Y34.957 I-.051 J-.673 E.02945
G3 X98.148 Y34.4 I1.334 J1.281 E.04875
G1 X127.028 Y34.4 E1.09762
G3 X130.6 Y37.977 I-.05 J3.622 E.21265
G1 X130.6 Y142.021 E3.95433
G3 X127.021 Y145.6 I-3.622 J-.043 E.21299
G1 X52.979 Y145.6 E2.81406
G3 X49.4 Y142.021 I.043 J-3.622 E.21299
G1 X49.4 Y37.979 E3.95425
G3 X49.904 Y36.177 I3.619 J.041 E.07193
M204 P2000
G1 X50.297 Y36.409 F24000
M204 P500
G1 F1800
G3 X52.949 Y34.859 I2.72 J1.609 E.12191
G1 X81.881 Y34.864 E1.0996
G3 X82.839 Y35.542 I-.214 J1.318 E.04618
G2 X83.534 Y35.857 I.695 J-.607 E.0299
G1 X96.466 Y35.857 E.4915
G2 X97.349 Y35.276 I-.032 J-1.01 E.04228
G3 X98.175 Y34.857 I.987 J.924 E.03593
G1 X127.019 Y34.857 E1.09625
G3 X130.143 Y37.987 I-.038 J3.162 E.18612
G1 X130.143 Y142.012 E3.95361
G3 X127.012 Y145.143 I-3.162 J-.031 E.18642
M73 P4 R42
M73 Q3 S43
G1 X52.988 Y145.143 E2.81338
G3 X49.857 Y142.012 I.031 J-3.162 E.18642
M73 Q4 S43
G1 X49.857 Y37.988 E3.95357
G3 X50.267 Y36.461 I3.16 J.03 E.06074
M204 P2000
G1 X50.664 Y36.686 F24000
M204 P500
G1 F1800
G3 X52.96 Y35.316 I2.35 J1.329 E.10631
G1 X81.847 Y35.321 E1.09789
G3 X82.475 Y35.82 I-.194 J.889 E.03157
G2 X83.522 Y36.314 I1.044 J-.855 E.04547
G1 X96.478 Y36.314 E.49241
G2 X97.684 Y35.588 I-.005 J-1.371 E.05618
G3 X98.205 Y35.314 I.633 J.574 E.02284
G1 X127.009 Y35.314 E1.09473
G3 X129.686 Y37.997 I-.026 J2.703 E.15963
G1 X129.686 Y142.003 E3.95289
G3 X127.004 Y144.686 I-2.703 J-.02 E.15982
G1 X52.997 Y144.686 E2.81273
G3 X50.314 Y142.004 I.02 J-2.703 E.15982
G1 X50.314 Y37.997 E3.95292
G3 X50.635 Y36.738 I2.7 J.018 E.04987
M204 P2000
G1 X51.038 Y36.954 F24000
M204 P500
G1 F1800
G3 X52.988 Y35.772 I1.975 J1.06 E.09092
G1 X81.767 Y35.771 E1.09378
G3 X82.117 Y36.106 I-.152 J.51 E.01912
G2 X83.505 Y36.771 I1.401 J-1.142 E.06042
G1 X96.495 Y36.771 E.4937
G2 X98.085 Y35.834 I-.04 J-1.885 E.07329
G1 X98.233 Y35.771 E.00611
G1 X126.999 Y35.772 E1.09329
G3 X129.229 Y38.006 I-.014 J2.243 E.13307
G1 X129.229 Y141.995 E3.95224
G3 X126.995 Y144.229 I-2.244 J-.01 E.13322
M73 P5 R42
G1 X53.005 Y144.229 E2.81209
G3 X50.771 Y141.995 I.01 J-2.244 E.13322
G1 X50.771 Y38.005 E3.95228
G3 X51.01 Y37.008 I2.242 J.009 E.03931
M73 P5 R41
M73 Q5 S43
M204 P2000
G1 E-2.5 F4200
G1 Z.4 F720
M486 S0
G1 X102.309 Y105.298 F24000
G1 Z.2 F720
G1 E2.5 F2400
M204 P500
;TYPE:Perimeter
;WIDTH:0.499999
G1 F1800
G1 X102.47 Y105.166 E.00791
G1 X102.779 Y105.093 E.01207
G1 X127.221 Y105.093 E.92895
G1 X127.633 Y105.23 E.0165
G1 X127.749 Y105.504 E.01131
;WIDTH:0.45719
G1 X127.864 Y105.779 E.01027
;WIDTH:0.41438
G1 X127.864 Y107.221 E.04454
;WIDTH:0.420657
G1 X127.858 Y107.333 E.00352
;WIDTH:0.460328
G1 X127.745 Y107.552 E.00855
;WIDTH:0.499999
G1 X127.633 Y107.77 E.00931
G1 X127.221 Y107.907 E.0165
G1 X102.779 Y107.907 E.92895
G1 X102.482 Y107.84 E.01157
G1 X102.26 Y107.67 E.01063
G1 X102.123 Y107.421 E.0108
G1 X102.093 Y107.221 E.00769
G1 X102.093 Y105.779 E.05481
G1 X102.111 Y105.622 E.00601
G1 X102.24 Y105.355 E.01127
G1 X102.263 Y105.336 E.00113
M204 P2000
G1 X102.618 Y105.637 F24000
M204 P500
;TYPE:External perimeter
G1 F1800
G1 X102.653 Y105.588 E.00229
G1 X102.779 Y105.55 E.005
G1 X127.221 Y105.55 E.92895
G1 X127.359 Y105.596 E.00553
G1 X127.45 Y105.779 E.00777
G1 X127.45 Y107.221 E.05481
G1 X127.359 Y107.404 E.00777
G1 X127.221 Y107.45 E.00553
G1 X102.779 Y107.45 E.92895
G1 X102.616 Y107.382 E.00671
G1 X102.55 Y107.221 E.00661
G1 X102.556 Y105.726 E.05682
G1 X102.584 Y105.687 E.00182
M204 P2000
G1 X102.963 Y105.558 F24000
G1 E-2.5 F4200
G1 Z.4 F720
G1 X82.305 Y120.191 F24000
G1 Z.2 F720
G1 E2.5 F2400
M204 P500
;TYPE:Perimeter
G1 F1800
G1 X82.262 Y120.247 E.00268
G1 X82 Y120.383 E.01122
G1 X81.821 Y120.407 E.00686
G1 X74.179 Y120.407 E.29044
G1 X73.888 Y120.342 E.01133
G1 X73.638 Y120.144 E.01212
G1 X73.507 Y119.862 E.01182
G1 X73.493 Y119.721 E.00539
G1 X73.493 Y68.279 E1.95512
G1 X73.552 Y68.001 E.0108
G1 X73.731 Y67.759 E.01144
G1 X74.012 Y67.614 E.01202
G1 X74.179 Y67.593 E.0064
G1 X80.966 Y67.593 E.25795
G1 X81.821 Y67.593 E.0325
G1 X82.128 Y67.665 E.01198
G1 X82.367 Y67.863 E.0118
G1 X82.493 Y68.141 E.0116
G1 X82.507 Y68.279 E.00527
G1 X82.507 Y119.721 E1.95512
G1 X82.439 Y120.018 E.01158
G1 X82.342 Y120.144 E.00604
M204 P2000
G1 X81.951 Y119.894 F24000
M204 P500
;TYPE:External perimeter
G1 F1800
G1 X81.821 Y119.95 E.00538
G1 X74.179 Y119.95 E.29044
G1 X74.017 Y119.883 E.00666
G1 X73.95 Y119.721 E.00666
G1 X73.95 Y68.279 E1.95512
G1 X74.019 Y68.114 E.0068
G1 X74.179 Y68.05 E.00655
G1 X80.966 Y68.05 E.25795
G1 X81.824 Y68.05 E.03261
G1 X81.984 Y68.118 E.00661
G1 X82.05 Y68.279 E.00661
G1 X82.05 Y119.721 E1.95512
G1 X81.995 Y119.86 E.00568
M204 P2000
G1 X81.603 Y119.941 F24000
G1 E-2.5 F4200
G1 Z.4 F720
G1 X96.917 Y37.742 F24000
G1 Z.2 F720
G1 E2.5 F2400
M204 P500
;TYPE:Perimeter
G1 F1800
G1 X97.394 Y37.654 E.01843
G1 X97.975 Y37.381 E.0244
G1 X98.147 Y37.265 E.00788
G1 X98.641 Y36.807 E.0256
G1 X126.83 Y36.809 E1.07136
G1 X127.357 Y36.871 E.02017
G1 X127.697 Y37.044 E.0145
G1 X127.967 Y37.318 E.01462
G1 X128.122 Y37.622 E.01297
G1 X128.193 Y38.172 E.02108
G1 X128.193 Y104.95 E2.53798
G1 X128.214 Y105.364 E.01575
;WIDTH:0.45719
G1 X128.236 Y105.779 E.01432
;WIDTH:0.41438
G1 X128.236 Y107.221 E.04454
;WIDTH:0.420657
G1 X128.233 Y107.366 E.00456
;WIDTH:0.460328
G1 X128.213 Y107.708 E.01189
;WIDTH:0.499999
G1 X128.193 Y108.05 E.01302
G1 X128.193 Y141.835 E1.28404
G1 X128.128 Y142.359 E.02007
G1 X127.955 Y142.699 E.0145
G1 X127.699 Y142.955 E.01376
G1 X127.359 Y143.128 E.0145
G1 X126.94 Y143.193 E.01612
G1 X53.165 Y143.193 E2.80391
G1 X52.641 Y143.128 E.02007
M73 P6 R41
G1 X52.301 Y142.955 E.0145
G1 X52.045 Y142.699 E.01376
G1 X51.872 Y142.359 E.0145
G1 X51.807 Y141.94 E.01612
G1 X51.807 Y38.165 E3.9441
G1 X51.872 Y37.641 E.02007
G1 X52.045 Y37.301 E.0145
G1 X52.301 Y37.045 E.01376
G1 X52.641 Y36.872 E.0145
M73 Q6 S43
G1 X53.06 Y36.807 E.01612
G1 X81.379 Y36.807 E1.0763
G1 X81.677 Y37.128 E.01665
G1 X82.356 Y37.558 E.03055
G1 X82.975 Y37.752 E.02465
G1 X83.492 Y37.807 E.01976
G1 X95.695 Y37.807 E.46379
G1 X96.609 Y37.8 E.03474
G1 X96.858 Y37.753 E.00963
M204 P2000
G1 X96.849 Y37.297 F24000
M204 P500
;TYPE:External perimeter
G1 F1800
G1 X97.199 Y37.24 E.01348
G1 X97.838 Y36.929 E.02701
G1 X98.311 Y36.494 E.02442
G1 X98.417 Y36.35 E.0068
G1 X127.006 Y36.352 E1.08656
G1 X127.5 Y36.431 E.01901
G1 X127.97 Y36.67 E.02004
G1 X128.342 Y37.048 E.02016
G1 X128.561 Y37.478 E.01834
G1 X128.65 Y38.172 E.02659
G1 X128.65 Y141.975 E3.94517
G1 X128.569 Y142.501 E.02023
M73 Q6 S42
G1 X128.33 Y142.971 E.02004
G1 X127.971 Y143.33 E.0193
G1 X127.501 Y143.569 E.02004
G1 X126.975 Y143.65 E.02023
G1 X53.025 Y143.65 E2.81056
G1 X52.499 Y143.569 E.02023
G1 X52.029 Y143.33 E.02004
G1 X51.67 Y142.971 E.0193
G1 X51.431 Y142.501 E.02004
G1 X51.35 Y141.975 E.02023
G1 X51.35 Y38.025 E3.95075
G1 X51.431 Y37.499 E.02023
G1 X51.67 Y37.029 E.02004
G1 X52.029 Y36.67 E.0193
G1 X52.499 Y36.431 E.02004
G1 X53.025 Y36.35 E.02023
G1 X81.595 Y36.35 E1.08584
G1 X81.935 Y36.75 E.01995
G1 X82.497 Y37.123 E.02564
G1 X83.112 Y37.316 E.0245
G1 X83.492 Y37.35 E.0145
G1 X96.542 Y37.348 E.49598
G1 X96.79 Y37.307 E.00955
M204 P2000
G1 X97.183 Y37.231 F24000
G1 E-2.5 F4200
G1 Z.4 F720
G1 X127.977 Y37.875 F24000
G1 Z.2 F720
G1 E2.5 F2400
M204 P500
;TYPE:Solid infill
;WIDTH:0.501285
G1 F2700
G1 X127.464 Y37.361 E.02768
G2 X126.938 Y37.198 I-.576 J.924 E.02122
G1 X126.652 Y37.198 E.0109
G1 X127.804 Y38.35 E.06209
G1 X127.804 Y38.998 E.0247
G1 X126.004 Y37.198 E.09702
G1 X125.356 Y37.198 E.0247
G1 X127.804 Y39.646 E.13195
G1 X127.804 Y40.295 E.02474
G1 X124.707 Y37.197 E.16696
G1 X124.059 Y37.197 E.0247
G1 X127.804 Y40.943 E.20188
G1 X127.804 Y41.591 E.0247
G1 X123.411 Y37.197 E.23681
G1 X122.762 Y37.197 E.02474
G1 X127.804 Y42.239 E.27176
G1 X127.804 Y42.888 E.02474
G1 X122.114 Y37.197 E.30672
G1 X121.466 Y37.197 E.0247
G1 X127.804 Y43.536 E.34165
G1 X127.804 Y44.184 E.0247
G1 X120.818 Y37.197 E.37657
G1 X120.169 Y37.197 E.02474
G1 X127.804 Y44.832 E.41153
G1 X127.804 Y45.48 E.0247
G1 X119.521 Y37.197 E.44646
G1 X118.873 Y37.197 E.0247
G1 X127.804 Y46.129 E.48141
G1 X127.804 Y46.777 E.0247
G1 X118.225 Y37.197 E.51634
G1 X117.576 Y37.197 E.02474
G1 X127.804 Y47.425 E.55129
G1 X127.804 Y48.073 E.0247
G1 X116.928 Y37.197 E.58622
G1 X116.28 Y37.197 E.0247
G1 X127.804 Y48.722 E.62117
G1 X127.804 Y49.37 E.0247
G1 X115.631 Y37.197 E.65613
G1 X114.983 Y37.197 E.0247
G1 X127.804 Y50.018 E.69105
G1 X127.804 Y50.666 E.0247
G1 X114.335 Y37.197 E.72598
G1 X113.687 Y37.197 E.0247
G1 X127.804 Y51.314 E.76091
G1 X127.804 Y51.963 E.02474
G1 X113.038 Y37.197 E.79589
G1 X112.39 Y37.197 E.0247
M73 P7 R41
G1 X127.804 Y52.611 E.83082
G1 X127.804 Y53.259 E.0247
G1 X111.742 Y37.197 E.86575
G1 X111.094 Y37.197 E.0247
G1 X127.804 Y53.907 E.90067
G1 X127.804 Y54.556 E.02474
G1 X110.445 Y37.196 E.93568
G1 X109.797 Y37.196 E.0247
G1 X127.804 Y55.204 E.97061
G1 X127.804 Y55.852 E.0247
G1 X109.149 Y37.196 E1.00554
G1 X108.5 Y37.196 E.02474
G1 X127.804 Y56.5 E1.04049
G1 X127.804 Y57.149 E.02474
G1 X107.852 Y37.196 E1.07544
G1 X107.204 Y37.196 E.0247
G1 X127.804 Y57.797 E1.11037
G1 X127.804 Y58.445 E.0247
M73 Q7 S42
G1 X106.556 Y37.196 E1.1453
G1 X105.907 Y37.196 E.02474
G1 X127.804 Y59.093 E1.18025
G1 X127.804 Y59.741 E.0247
G1 X105.259 Y37.196 E1.21518
G1 X104.611 Y37.196 E.0247
G1 X127.804 Y60.39 E1.25013
G1 X127.804 Y61.038 E.0247
G1 X103.963 Y37.196 E1.28506
G1 X103.314 Y37.196 E.02474
G1 X127.804 Y61.686 E1.32002
G1 X127.804 Y62.334 E.0247
G1 X102.666 Y37.196 E1.35494
G1 X102.018 Y37.196 E.0247
G1 X127.804 Y62.983 E1.3899
G1 X127.804 Y63.631 E.0247
M73 P7 R40
G1 X101.369 Y37.196 E1.42485
G1 X100.721 Y37.196 E.0247
G1 X127.804 Y64.279 E1.45978
G1 X127.804 Y64.927 E.0247
G1 X100.073 Y37.196 E1.49471
G1 X99.425 Y37.196 E.0247
G1 X127.804 Y65.575 E1.52963
G1 X127.804 Y66.224 E.02474
G1 X98.787 Y37.206 E1.56405
G1 X98.449 Y37.516 E.01748
G1 X127.804 Y66.872 E1.58227
G1 X127.804 Y67.52 E.0247
G1 X98.053 Y37.769 E1.60359
G1 X97.615 Y37.979 E.01851
G1 X127.804 Y68.168 E1.62719
G1 X127.804 Y68.817 E.02474
G1 X97.105 Y38.117 E1.65471
G1 X96.533 Y38.193 E.02199
G1 X127.804 Y69.465 E1.68554
G1 X127.804 Y70.113 E.0247
G1 X95.884 Y38.193 E1.72049
G1 X95.236 Y38.193 E.0247
G1 X127.804 Y70.761 E1.75542
G1 X127.804 Y71.409 E.0247
G1 X94.588 Y38.193 E1.79035
G1 X93.94 Y38.193 E.0247
G1 X127.804 Y72.058 E1.8253
G1 X127.804 Y72.706 E.0247
M73 P8 R40
G1 X93.292 Y38.194 E1.8602
G1 X92.644 Y38.194 E.0247
G1 X127.804 Y73.354 E1.89513
G1 X127.804 Y74.002 E.0247
G1 X91.996 Y38.194 E1.93006
G1 X91.348 Y38.194 E.0247
G1 X127.804 Y74.651 E1.96501
G1 X127.804 Y75.299 E.0247
G1 X90.7 Y38.194 E1.99994
G1 X90.052 Y38.194 E.0247
M73 Q8 S42
G1 X127.804 Y75.947 E2.03487
G1 X127.804 Y76.595 E.0247
G1 X89.403 Y38.194 E2.06982
G1 X88.755 Y38.195 E.0247
G1 X127.804 Y77.244 E2.10475
